X:1
T:Kerry Slide
C: Chieftains
D: Tears of Stone
H: Crans on all quarter notes and dotted quarter notes!
M:6/8
L:1/8
Q:C1=375
K:G
D| GAB D3| c2 A BGE| GAB D3| A3 AGE| GAB D2 B| c2 A BGE| GAB D3| G3 G2 D|*
GAB D3| c2 A BGE| GAB DEG| A3 AGE| GAB D z B| cBA BGE| GAB D3| G3 G z z|*
G2 B d z d| edB d2 B| G2 B dBG| A3 AGE| GAB d z g| edB d3| G3 D3| G3 G2 D|*
GAB d z d| edB d2 B| GAB BdG| A3 AGE| GAB d2 g| edB d2 B| GAB D3| G3 G z z|*
G2 B d z d| edB g2 e| dBA GBd| e2 f g3| ged BAB| d2 B AGE| GAB D3| G3 G z z|*
GAB d z d| edB g z e| dBA GBd| e2 f g3| ged BAB| d2 B AGE| GAB D3| G3 g z z|*



